status/24/notification-new-90-symbolic.svg

<?xml version="1.0" encoding="UTF-8" standalone="no"?>
<svg
   xmlns:dc="http://purl.org/dc/elements/1.1/"
   xmlns:cc="http://creativecommons.org/ns#"
   xmlns:rdf="http://www.w3.org/1999/02/22-rdf-syntax-ns#"
   xmlns:svg="http://www.w3.org/2000/svg"
   xmlns="http://www.w3.org/2000/svg"
   height="24"
   width="24"
   version="1.1"
   id="svg8">
  <metadata
     id="metadata14">
    <rdf:RDF>
      <cc:Work
         rdf:about="">
        <dc:format>image/svg+xml</dc:format>
        <dc:type
           rdf:resource="http://purl.org/dc/dcmitype/StillImage" />
        <dc:title />
      </cc:Work>
    </rdf:RDF>
  </metadata>
  <defs
     id="defs12" />
  <path
     id="path2-3-7-9-8-3-7-2"
     d="M 13.992188 5.0039062 C 13.602498 5.0068063 13.232731 5.2403631 13.074219 5.6230469 L 13.070312 5.6308594 C 11.266053 5.3770937 9.4725375 6.4873788 8.7734375 8.1699219 C 8.7734375 8.1699219 6.8591806 12.790042 5.0878906 12.728516 C 5.0688906 12.732516 5.0554563 12.747373 5.0351562 12.751953 C 4.9580563 12.773473 4.8843294 12.808163 4.8183594 12.853516 C 4.7913594 12.871576 4.7638344 12.881834 4.7402344 12.902344 C 4.6503344 12.976574 4.5795531 13.070765 4.5332031 13.177734 C 4.3740131 13.562068 4.5560531 13.99939 4.9394531 14.158203 L 14.640625 18.175781 C 15.024965 18.334977 15.459941 18.155821 15.619141 17.771484 C 15.662041 17.663073 15.678969 17.545739 15.667969 17.429688 C 15.665969 17.398457 15.654237 17.370374 15.648438 17.339844 C 15.633638 17.260934 15.606106 17.185025 15.566406 17.115234 C 15.556206 17.098024 15.558405 17.077207 15.546875 17.060547 C 14.366437 15.96053 15.790067 12.190114 16.064453 11.496094 A 3.5 3.5 0 0 1 12.5 8 A 3.5 3.5 0 0 1 14.144531 5.0351562 C 14.093281 5.0275263 14.043141 5.0035273 13.992188 5.0039062 z M 9.6152344 17.177734 C 9.5900324 18.139714 10.256472 19.005886 11.232422 19.191406 C 11.9256 19.322706 12.598551 19.075834 13.050781 18.599609 L 9.6152344 17.177734 z "
     style="color:#bebebe;overflow:visible;isolation:auto;mix-blend-mode:normal;fill:#666666;marker:none" />
  <path
     id="path4-7-9"
     style="color:#bebebe;overflow:visible;isolation:auto;mix-blend-mode:normal;fill:#d33636;stroke-width:1;marker:none"
     overflow="visible"
     d="m 18.5,8 a 2.5,2.5 0 0 1 -5,0 2.5,2.5 0 1 1 5,0 z"
     class="error" />
</svg>

<?xml version="1.0" encoding="UTF-8" standalone="no"?>
<svg
   xmlns:dc="http://purl.org/dc/elements/1.1/"
   xmlns:cc="http://creativecommons.org/ns#"
   xmlns:rdf="http://www.w3.org/1999/02/22-rdf-syntax-ns#"
   xmlns:svg="http://www.w3.org/2000/svg"
   xmlns="http://www.w3.org/2000/svg"
   id="svg8"
   version="1.1"
   width="24"
   height="24">
  <metadata
     id="metadata14">
    <rdf:RDF>
      <cc:Work
         rdf:about="">
        <dc:format>image/svg+xml</dc:format>
        <dc:type
           rdf:resource="http://purl.org/dc/dcmitype/StillImage" />
        <dc:title />
      </cc:Work>
    </rdf:RDF>
  </metadata>
  <defs
     id="defs12" />
  <rect
     ry="1.0032299"
     rx="1.3287197"
     y="0"
     x="-78"
     height="24"
     width="24"
     id="rect843-2-2"
     style="opacity:1;vector-effect:none;fill:#f9f9f9;fill-opacity:1;stroke:none;stroke-width:1;stroke-linecap:butt;stroke-linejoin:miter;stroke-miterlimit:4;stroke-dasharray:none;stroke-dashoffset:0;stroke-opacity:1;marker:none" />
  <path
     d="m -63.50144,5.1335884 c -0.47829,-0.27614 -1.08988,-0.1122672 -1.36603,0.3660254 l -0.005,0.00866 c -1.75567,-0.4870922 -3.68034,0.3785433 -4.59307,1.9554416 0,0 -2.5,4.3301266 -4.2481,4.0379286 -0.0194,0.0015 -0.0354,0.01535 -0.0561,0.01724 -0.0793,0.01127 -0.1561,0.03557 -0.22743,0.07192 -0.0291,0.01438 -0.0578,0.02207 -0.0839,0.03932 -0.0988,0.06188 -0.18155,0.146256 -0.24148,0.246252 -0.208,0.360267 -0.0849,0.817019 0.27452,1.024519 l 9.09327,5.25 c 0.36027,0.208 0.81652,0.08575 1.02452,-0.274519 0.0566,-0.101946 0.0883,-0.215771 0.0925,-0.332252 0.002,-0.03125 -0.005,-0.0608 -0.007,-0.09182 -0.004,-0.08017 -0.022,-0.159033 -0.0523,-0.233421 -0.008,-0.01839 -0.004,-0.03921 -0.0131,-0.05724 -1.1276,-1.366936 1.3729,-5.697929 1.3729,-5.697929 0.90977,-1.5797639 0.69796,-3.6788994 -0.60308,-4.955441 l 0.005,-0.00866 c 0.27612,-0.4782918 0.11224,-1.0898846 -0.36605,-1.3660246 z"
     overflow="visible"
     style="color:#bebebe;overflow:visible;isolation:auto;mix-blend-mode:normal;fill:#666666;marker:none"
     id="path2-3-5-2-2-5-1-0" />
  <rect
     ry="1.0032299"
     rx="1.3287197"
     y="0"
     x="-52"
     height="24"
     width="24"
     id="rect843-6-2-5"
     style="opacity:1;vector-effect:none;fill:#f9f9f9;fill-opacity:1;stroke:none;stroke-width:1;stroke-linecap:butt;stroke-linejoin:miter;stroke-miterlimit:4;stroke-dasharray:none;stroke-dashoffset:0;stroke-opacity:1;marker:none" />
  <path
     d="m -37.62056,5.0852311 c -0.51024,-0.2113484 -1.09521,0.030952 -1.30657,0.5411961 l -0.004,0.00924 c -1.80425,-0.2537657 -3.59947,0.8556847 -4.29857,2.5382278 0,0 -1.91341,4.619398 -3.6847,4.557872 -0.019,0.004 -0.0331,0.01984 -0.0534,0.02442 -0.0771,0.02152 -0.15012,0.05564 -0.2161,0.100991 -0.027,0.01806 -0.0544,0.02942 -0.0781,0.04993 -0.0898,0.07425 -0.16091,0.168702 -0.20727,0.275665 -0.15919,0.384334 0.0225,0.821109 0.4059,0.979922 l 9.70073,4.018176 c 0.38434,0.159197 0.82073,-0.02156 0.97993,-0.405897 0.0428,-0.108455 0.0594,-0.225452 0.0484,-0.341486 -0.002,-0.03123 -0.0132,-0.05959 -0.019,-0.09011 -0.0148,-0.07891 -0.0426,-0.154795 -0.0823,-0.224597 -0.0102,-0.01721 -0.009,-0.03837 -0.0205,-0.05503 -1.29638,-1.20806 0.61742,-5.828382 0.61742,-5.828382 0.69578,-1.6849973 0.21179,-3.7385277 -1.24473,-4.8343292 l 0.004,-0.00924 c 0.21135,-0.5102446 -0.031,-1.0952146 -0.5412,-1.306563 z"
     overflow="visible"
     style="color:#bebebe;overflow:visible;isolation:auto;mix-blend-mode:normal;fill:#666666;marker:none"
     id="path2-3-5-2-2-5-19-5" />
  <path
     style="color:#bebebe;overflow:visible;isolation:auto;mix-blend-mode:normal;fill:#666666;marker:none"
     d="m 13.992188,5.0039062 c -0.389689,0.0029 -0.759457,0.2364569 -0.917969,0.6191407 l -0.0039,0.00781 C 11.26606,5.3770912 9.472545,6.4873763 8.773445,8.1699194 c 0,0 -1.914257,4.6201206 -3.685547,4.5585946 -0.019,0.004 -0.03243,0.01886 -0.05273,0.02344 -0.0771,0.02152 -0.150827,0.05621 -0.216797,0.101563 -0.027,0.01806 -0.05453,0.02832 -0.07813,0.04883 -0.0899,0.07423 -0.160681,0.168421 -0.207031,0.27539 -0.15919,0.384334 0.02285,0.821656 0.40625,0.980469 l 9.701172,4.017578 c 0.38434,0.159196 0.819316,-0.01996 0.978516,-0.404297 0.0429,-0.108411 0.05983,-0.225745 0.04883,-0.341796 -0.002,-0.03123 -0.01373,-0.05931 -0.01953,-0.08984 -0.0148,-0.07891 -0.04233,-0.154819 -0.08203,-0.22461 -0.0102,-0.01721 -0.008,-0.03803 -0.01953,-0.05469 -1.180438,-1.100017 0.243192,-4.870433 0.517578,-5.564453 A 3.5,3.5 0 0 1 12.5,8 3.5,3.5 0 0 1 14.144531,5.0351562 c -0.05125,-0.00763 -0.101389,-0.031629 -0.152343,-0.03125 z"
     id="path2-3-7-9-8-3-7-2" />
  <path
     style="opacity:1;vector-effect:none;fill:#666666;fill-opacity:1;stroke:none;stroke-width:1;stroke-linecap:butt;stroke-linejoin:miter;stroke-miterlimit:4;stroke-dasharray:none;stroke-dashoffset:0;stroke-opacity:1;marker:none"
     d="m 9.6152344,17.177734 c -0.025202,0.96198 0.6412376,1.828152 1.6171876,2.013672 0.693178,0.1313 1.366129,-0.115572 1.818359,-0.591797 z"
     id="path832-5-1-7-7-4-5" />
  <rect
     ry="1.0032299"
     rx="1.3287197"
     y="0"
     x="-26"
     height="24"
     width="24"
     id="rect843-6-2-1-2-3-5-2"
     style="opacity:1;vector-effect:none;fill:#f9f9f9;fill-opacity:1;stroke:none;stroke-width:1;stroke-linecap:butt;stroke-linejoin:miter;stroke-miterlimit:4;stroke-dasharray:none;stroke-dashoffset:0;stroke-opacity:1;marker:none" />
  <path
     style="color:#bebebe;overflow:visible;isolation:auto;mix-blend-mode:normal;fill:#666666;marker:none"
     d="m -12.007812,5.0039062 c -0.389689,0.0029 -0.759457,0.2364569 -0.917969,0.6191407 l -0.0039,0.00781 c -1.804266,-0.2537632 -3.597782,0.8565219 -4.296882,2.539065 0,0 -1.914256,4.6201201 -3.685546,4.5585941 -0.019,0.004 -0.03243,0.01886 -0.05273,0.02344 -0.0771,0.02152 -0.150827,0.05621 -0.216797,0.101563 -0.027,0.01806 -0.05452,0.02832 -0.07813,0.04883 -0.0899,0.07423 -0.160682,0.168421 -0.207032,0.27539 -0.15919,0.384334 0.02285,0.821656 0.40625,0.980469 l 9.701172,4.017578 c 0.38434,0.159197 0.819316,-0.01996 0.978516,-0.404297 0.0429,-0.108411 0.05983,-0.225745 0.04883,-0.341796 -0.002,-0.03123 -0.01373,-0.05931 -0.01953,-0.08984 -0.0148,-0.07891 -0.04233,-0.154819 -0.08203,-0.22461 -0.0102,-0.01721 -0.008,-0.03803 -0.01953,-0.05469 -1.29638,-1.20806 0.617187,-5.830078 0.617187,-5.830078 0.170868,-0.413795 0.267192,-0.848506 0.29883,-1.2871096 A 2,2 0 0 1 -12,8 2,2 0 0 1 -11.060547,6.3046875 c 0.155401,-0.4896218 -0.07523,-1.0224324 -0.558594,-1.2226563 -0.127562,-0.052837 -0.258775,-0.079092 -0.388671,-0.078125 z"
     id="path2-3-7-9-8-3-7-2-0" />
  <path
     style="opacity:1;vector-effect:none;fill:#666666;fill-opacity:1;stroke:none;stroke-width:1;stroke-linecap:butt;stroke-linejoin:miter;stroke-miterlimit:4;stroke-dasharray:none;stroke-dashoffset:0;stroke-opacity:1;marker:none"
     d="m -17.375,16.755859 c -0.111138,0.947433 0.464558,1.86569 1.410156,2.146485 0.806175,0.238822 1.642883,-0.0565 2.134766,-0.677735 z"
     id="path832-5-1-7-7-4-5-1" />
  <path
     style="opacity:1;vector-effect:none;fill:#666666;fill-opacity:1;stroke:none;stroke-width:1;stroke-linecap:butt;stroke-linejoin:miter;stroke-miterlimit:4;stroke-dasharray:none;stroke-dashoffset:0;stroke-opacity:1;marker:none"
     d="m -45.103516,16.060547 c -0.113256,0.827837 0.295809,1.669619 1.085938,2.060547 0.874211,0.431821 1.909468,0.164352 2.476562,-0.585938 z"
     id="path832-5-1-7-7-4-5-1-2" />
  <path
     style="opacity:1;vector-effect:none;fill:#666666;fill-opacity:1;stroke:none;stroke-width:1;stroke-linecap:butt;stroke-linejoin:miter;stroke-miterlimit:4;stroke-dasharray:none;stroke-dashoffset:0;stroke-opacity:1;marker:none"
     d="m -73.150391,14.539062 c -0.14411,0.696526 0.07928,1.446102 0.66211,1.935547 0.765685,0.642149 1.866815,0.60589 2.595703,-0.0332 l -3.113281,-1.796875 c -0.06024,-0.03478 -0.08961,-0.06963 -0.144532,-0.105469 z"
     id="path832-5-1-7-7-4-5-1-2-7" />
  <path
     class="error"
     d="m 18.5,8 a 2.5,2.5 0 0 1 -5,0 2.5,2.5 0 1 1 5,0 z"
     overflow="visible"
     style="color:#bebebe;overflow:visible;isolation:auto;mix-blend-mode:normal;fill:#d33636;stroke-width:1;marker:none"
     id="path4-7-9" />
  <path
     class="error"
     d="m -9,8 a 1,1 0 0 1 -2,0 1,1 0 1 1 2,0 z"
     overflow="visible"
     style="color:#bebebe;overflow:visible;isolation:auto;mix-blend-mode:normal;fill:#d33636;stroke-width:1;marker:none"
     id="path4-7-9-6-2" />
</svg>
